X:1
T:Suite for Three Violins
T:Op. 133
T:Emanuel Moór
T:VIOLIN 3
%%score ( 1 2 )
L:1/8
Q:1/4=90
M:4/4
K:Bb
V:1 treble nm="Violin"
V:2 treble 
V:1
"^I"!f!"^Andante espressivo" [G,D]6 z2 | [G,D]4!p! G,4- | G,4 G,2 [G,D]2 | G2 z2 z2 (G,A,) | %4
!p! [G,D]2 z2 [G,D]2 z2 |!<(! E4!>(! E2 D2!<)!!>)! | C4 (B,2 A,2) | A,4 (G,2 A,2) | B,4 z4 | %9
 (A,4 _A,4) | G,4 z4 | z8 | z8 | (F^F G2) (=F^F G2) | _A,4 A,4- | A,2 z2 z4 |!pp! ^C4 C4 | %17
 ^C4 C4- | C2 z2 z4 | (^C2 =B,2 ^A,2) (^A2 | =A4) z2 [A,G]2 |!ff! (3DDD- (3DDD- (3DDD- (3DDD- | %22
 (3DDD- (3DDD- (3DDD- (3DDD- | (3DDD- (3DDD- (3DDD- (3DDD- | (3DDD- (3DDD- (3DDD- (3DDD | %25
 (3EEE- (3EEE- (3EEE (3[G,G][G,G][G,G] | (3B,B,B,- (3B,B,B,- (3B,B,B,- (3B,A,G, | %27
 (3DDD- (3DDD- (3DDD- (3DDD- | (3DDD- (3DDD- (3DDD- (3DDD | (=EF)(GA Bd)(cB) | F4 F4 | %31
!p! [_E^F]6 z2 | [DA] z [G,G] z z4 | z4!pp! =B,4 | z4 D4 | _D4 G,4 |"^cresc." ^D4 D4 | ^D4 D4 | %38
!f! ^G,2 G,z/G,/ G,2 G,z/G,/ | ^G,z/G,/ G, z z4 | ^G2 z2 (3(=E^D^C (3=B,^A,B,) | z8 | %42
!pp! (3^CCC (3^DDD (3=EEE (3^B,B,B, | (^C2 =E2 A2 ^c2) | =e4 e4 | =e4 e4 | ^e4 e4 | _e4 e4 | %48
 ^f4 f4 | TA4 D2 z2 |!pp! (3.G,.B,.A, (3.B,.C.^C (3.D.B,.D (3.G,.=E.^F | %51
 (3.G.B.G (3.d.B.d (3.G.cG- (3GAc | (3.B.c.A (3.G.A.B (3(eEe) (3(dDd) | (cBAG) (3z CC (3z DD | %54
 (3z (G,G) (3(FG,F) (3(=EG,E) (3(_EG,E) | (3(DG,D) (3(GG,)G- (3G(G,G) (F2 | %56
!<(! E2) (E2 B,2) (=B,C!<)! | D2) D4 D2 |!pp! (3GG,(G- (3GG,G) (3(FG,F- (3FG,F) | %59
 (3(=EG,E- (3EG,E) (3(_EG,E- (3EDC) | (3(DB,D G,2) E4 |"^Rit." (3(DB,D G,2) E4 | %62
!ppp! !fermata![G,D]8 |][M:4/4]"^II"!f![Q:1/4=120]"^Allegro" !>!B,B,!>!DB, !>!FB,!>!EG | %64
 F!>!B- B/F/G/F/!<(! E/C/D/A,/ B,/D/E/G/!<)! |!pp! F!>!B- B/F/G/F/!<(! E/C/D/A,/ B,/D/E/G/!<)! | %66
 F/G/A/B/ c/d/e/c/ =B/c/d/e/ f/g/_a/f/ | e/d/c/B/ A/B/c/^F/!<(! !>!B/B/B/F/ !>!d/d/d/B/!<)! | %68
!>(! ^F/F/F/B/!pp! _d/d/d/B/ _G/G/G/B/ d/d/d/B/!>)! | _A/A/A/F/ _D/_A,/D/F/ D/A,/F/A/ B/D/B/_d/ | %70
 _g/e/f/_d/ ._A.f B/c/d/e/ f/d/B/c/ | _g/e/f/_d/ ._A.d B/c/d/e/ f/d/B/c/ | %72
 f/e/_d/_A/ F/E/_D/F/ .B,.F.D.B | .F.=E.A,.E .A.E.^C.E | .A.B F/G/A/B/ .A.A, D/C/B,/C/ | %75
 A,/G/F/=E/ D/E/F/E/ D/B,/C/G,/ A,/C/D/G,/ | A,/G/F/=E/ D/E/F/E/ D/B,/C/G,/ A,/C/D/G,/ | %77
 A,/B,/C/B,/ A,/C/^C/D/ E/_D/=C/B,/ _A,/D/C/E/ | _D2 DC B,2 B,_G/F/ | %79
 _G/F/_D/B,/ C/E/G/_A/ B/A/F/D/ E/G/B/c/ | _d/c/B/_A/ _G/A/B/_D/ E/F/G/E/ C/B,/_A,/=A,/ | %81
 B,2 _A,2 z2 B,_D | (E2 _D2) z2 _CE |!<(! =E2 ^G,A, =B,4!<)! |!>(! A,^G,^GA =B=B, ^F2!>)! | %85
 =Ez/D/Cz/=B,/ A,z/G,/ Cz/B,/ | A,/B,/C/D/!<(! ^D/=E/G/F/!>(! G/F/_E/=D/ C/B,/G,/A,/!<)!!>)! | %87
 !>!B,C!>!A,D !>!CD!>!B,G, | .^F.D.C.D A,C B,/A,/G,/^C/ | D^F- F/A,/B,/D/ G,G- G/B,/C/E/ | F6 F2 | %91
!ff! !>!B,B,!>!DB, !>!FB,!>!EG | F!>!B- B/F/G/F/ E/C/D/A,/ B,/D/E/G/ | %93
 F!>!B- B/F/G/F/ E/C/D/A,/ B,/D/E/G/ | F/G/A/B/ c/d/e/f/ g/d/e/B/ c/G/A/B/ | E2 z2 z4 | %96
 !>!_A4 !>!A4 | T_A4 TA4 |"^" TG4"^" TG4 | (F2 E2 D2 C2) | B,2 z2 z4 | EEGE BEGE | %102
 B(_DE)(D G)(EB)D | C(E_Ac) B,(_D_A,D) | G,/_A,/B,/C/ _D/=D/E/F/ G/_A/B/c/ _d/f/e/g/ | %105
 _a/c'/a/e/ c/_A/E/C/ _A, z z2 | z4 =B,2 z2 | A,2 z2 A,2 z2 | !>!DD!>!^FD !>!dD!>!^C^c | %109
 !>!=B=B,!>!A,A !>!BB,!>!A,A | G=B- B/G/D/=B,/ G,/B,/D/G/ B/d/g/=b/ | %111
!ff! g!>!=b- b/g/=e/=B/ G/B/=E/G/ B/e/g/b/ | c' z g z =e z z A | C z z2 z4 | z8 | %115
!p! g/=e/g/e/ c/e/g/c'/- c'/_a/c'/a/ f/c/a/c'/ | z2 _C2 z2 A,2 | =C2 z2 C2 z2 | B,2 z2 E2 z2 | %119
!f! !//!_A4 !//!A4 | .c._A.C.A F/D/E/B,/ C/A,/F/D/ | C z _A, z _G z _g z | _g2 _G2 G2 g2 | %123
 F2 z2 z4 |!p! (3B,B,B, (3=B,B,B, (3FF_B, (3EEG | F!>!B- B/F/G/F/ E/C/D/A,/ B,/D/E/G/ | %126
 F!>!B- B/F/G/F/ E/C/D/A,/ B,/D/E/G/ | F/G/A/B/ c/d/e/c/ =B/c/d/e/ f/g/_a/f/ | %128
 e/d/c/B/"^cresc." A/B/c/^F/ B/B/B/F/ d/d/d/B/ | ^F/F/F/B/ _d/d/d/B/ _G/G/G/B/ d/d/d/B/ | %130
 F/G/A/B/ c/d/e/f/ ^f/g/e/c/ A/=f/g/a/ |!ff! b2 fd BBeB | ceBF GABc | dfdB EFGB | ceBF GABc | %135
 dB F2 B,2 z2 | F4 z4 | B, z _GE F z D z |!ff! !fermata!B,8 || %139
[K:Eb][M:4/4][Q:1/4=72]"^Adagio espressivo"!p! E8 | D4 D4 | [CE]4 [CE]4 | [B,D]4 [B,D]4 | %143
 (_D2 CB,) A,4 |"^III" G,4 ([GB]2 [FA]2) | [EG]4 (ED C2) | (B,2 B2) (A2 A,2) | %147
!<(! (_G2 B2 _d2 ef)!<)! | F4 F4 | =E4!<(! ([FA]2 [GB]2)!<)! | [Ac]4 [Ac]4 | (F4 G4) |!pp! E4 z4 | %153
 E4 z4 | [_CA]4 [B,A]4 | E4 E4 | d4 d4 | [ce]4 ([ce]4 | [Bd]4) [Bd]4 | (=A2 G2) (G2 F2) | %160
 ^c4 ([=Af]2 [G=e]2) | [Fd]4 ([=E^c]2 [Dd]2) | (^C6 D2) | (D2 =E>F) F4 | (F4 =E4) | %165
!pp! (3D(D=E) TF2 (3E(EF)"^" TG2 | Az/(d/ (3=B^G=G) (3(FAd (3B^G=G) | (3F=AG Az/d/ (3(eAB (3cBA) | %168
 (3BB,C T_D2{CD} (3(Cc_d) e2 | B2 [AB]2 _G4 | (3(AGA) (3A(A,A- (3A)(GA) (3(AA,A) | %171
 (3(=A,^G,A,- (3A,G,)(A,- (3A,G,A,- (3A,G,A,) | (3(G,=A,B,) (B2 G2 =A2) | %173
 (3D(D=E)!<(! F2 (B2 A2)!<)! |!pp! (AD) B2 (AD) B2 | [D=A]4 z4 | z2 B,2 z2 B,2 | %177
 B,2 B,z/B,/ B,2 [B,=E]2 | [B,F]2 [B,F]2 [B,B]z/B,/ B,z/B,/ | %179
 (3(_CB,)(C- (3CB,)(C- (3CB,)(C- (3CB,C) | (B,2 B2) (GEcB) | %181
 (AGFE[Q:1/4=72]"^Poco Rall." D2) (GF) |[Q:1/4=72]"^Tempo I" E4 (c2 BA) | [AB]4 [AB]4 | %184
 [Ec]4 [E_c]4 | [EB]4 [EB]4 | (_d2 cB) (A4 | G4) G2 F2 | A,4 ([B,E]2 [=B,D]2) | %189
!<(! C2 B,2 A,4!<)! | E4!<(! E4!<)! | [CE]4 [_CE]4 |!>(! [B,E]4 [B,D]2 z2!>)! | z4!pp! (E4 | %194
 _D4) C4 |!>(! (A,2 G,2) z4!>)! |!>(! A,4 F4!>)! |!pp! E4 E4 | !fermata!E8 || %199
[K:G][M:3/4]"^IV"!f![Q:1/4=158]"^Allegro Vivace" [G,D]2 z4 | z6 | z6 | z6 | z6 | z6 | z6 | z6 | %207
 z6 | z6 | z6 | z6 | z6 | z6 | z6 | z6 | z6 | z6 | z6 | GA Bc B z | dB DB dB | GB cB AG | D6 | %222
 G,6 | A,6- | A,6 | D6 | _E6 | E6 | _E2 D2 G2 | G,6 | F6 | GA c_e cA |!pp! d_B =FD FB | AG =FG Ac | %234
 DD _B,C D=F | G,_A, _B,C D_E | _D_E D_B, CD | z2 G,2 z2 | z2 G,2 z2 | z2 =F2 z2 | z2 =F2 z2 | %241
 _B,2 z2 z2 | z6 |!p! !>!_B,!<(!B, B,4!<)! | !>!G,G, G,2 z2 | G2 z2 C2 | D2 z2 G2 | c3 G G2 | %248
 _E3 C C2 | _AG =F_E DC |!<(! B,2 E2 =F2!<)! |!>(! G2 _E2 C2!>)! | _A,A, A,4 | =FF F4- | %254
 FE _ED CB, | _B,D GD G_B | dG _Bd _ed | cB AG FE | z2"^pizz." D2 z2 | z2 D2 z2 | z6 | z6 | z6 | %263
 z2 z2!f!"^arco" g2 | c'3 g g2 | _e3 c c2 | _ag =f_e dc | B2 _e2 =f2 | g2 _e2 c2 | _AA A4 | %270
 =ff f4 | Bd fg ab | c'b c'g c'b | _ba b=f ba | _ag a_e ag | _g_d _B_c dB | _G z z4 | ^G,2 z4 | %278
 F2 z4 | z6 | _E2 z2 C2 | _B,2 z2 B,_A, | _D2 z4 | _E2 z4 | _A,2 z4 | _A,2 z4 | _A,2 z4 | %287
 _D2 z2 _E2 | _A,6 | _A,6 | _C6 | _C6 | z6 | z6 |!p! a3 e e2 | ^c3 A A2 | a3 f f2 | F3 D D2 | E6- | %299
 E6 | A,6- | A,2 z4 | A,2 z2 A,2 |!ff! D2 z4 | z6 |!ff! !>!CC C4- | C6 | _B,6- | B,6 | _DD D4- | %310
 D6 | C2 z4 | _D2 z4 | _B,2 z4 | _E2 z4 | _A, z C z _E z | A, z B, z ^D z | _A, z _B, z =F z | %318
 G, z A, z E z | F2 z4 | G,2 z4 | E2 z4 | A,2 z4 | =F2 z4 | F2 z4 | D2 z4 | D2 z4 |!ff! cB c_B AG | %328
 F_E DC _B,A, | [G,DB]2 z4 | !>!G,6 | !>!G,6 | !>!G,6 | !>!G,6 | G,6 | !>![G,=F]6- | [G,F]6 | %337
 E2 A,2 D2 |!ff! !fermata![G,D]6 |] %339
V:2
 x8 | x8 | x8 | x8 | x8 | x8 | x8 | x8 | x8 | x8 | x8 | x8 | x8 | x8 | x8 | x8 | x8 | x8 | x8 | %19
 x8 | x8 | x8 | x8 | x8 | x8 | x8 | x8 | x8 | x8 | x8 | x8 | x8 | x8 | x8 | x8 | x8 | x8 | x8 | %38
 x8 | x8 | x8 | x8 | x8 | x8 | x8 | x8 | x8 | x8 | x8 | x8 | x8 | x8 | x8 | x8 | x8 | x8 | x8 | %57
 x8 | x8 | x8 | x8 | x8 | x8 |][M:4/4] x8 | x8 | x8 | x8 | x8 | x8 | x8 | x8 | x8 | x8 | x8 | x8 | %75
 x8 | x8 | x8 | x8 | x8 | x8 | x8 | x8 | x8 | x8 | x8 | x8 | x8 | x8 | x8 | x8 | x8 | x8 | x8 | %94
 x8 | x8 | x8 | x8 | x8 | x8 | x8 | x8 | x8 | x8 | x8 | x8 | x8 | x8 | x8 | x8 | x8 | x8 | x8 | %113
 x8 | x8 | x8 | x8 | x8 | x8 | x8 | x8 | x8 | x8 | x8 | x8 | x8 | x8 | x8 | x8 | x8 | x8 | x8 | %132
 x8 | x8 | x8 | x8 | x8 | x8 | x8 ||[K:Eb][M:4/4] x8 | x8 | x8 | x8 | x8 | x8 | x8 | x8 | x8 | x8 | %149
 x8 | x8 | x8 | x8 | x8 | x8 | x8 | x8 | x8 | x8 | x8 | =E2 =A2 x4 | x8 | x8 | G,4 (G,2 ^G,2) | %164
 =A,8 | x2 x2 D2 D2 | Dz/d/ x2 D2 x2 | D2 x2 x4 | x8 | x8 | x8 | x8 | x8 | x8 | x8 | x8 | x8 | x8 | %178
 x8 | x8 | x8 | x2 x2 x2 B,2 | x2 x2 E2 z2 | x8 | x8 | x8 | x8 | x4 G,4 | x8 | x8 | E2 D2 _D4 | %191
 x8 | x8 | x8 | x8 | x8 | x8 | x8 | x8 ||[K:G][M:3/4] x6 | x6 | x6 | x6 | x6 | x6 | x6 | x6 | x6 | %208
 x6 | x6 | x6 | x6 | x6 | x6 | x6 | x6 | x6 | x6 | x6 | x6 | x6 | x6 | x6 | x6 | x6 | x6 | x6 | %227
 x6 | x6 | x6 | x6 | x6 | x6 | x6 | x6 | x6 | x6 | x6 | x6 | x6 | x6 | x6 | x6 | x6 | x6 | x6 | %246
 x6 | x6 | x6 | x6 | x6 | x6 | x6 | x6 | x6 | x6 | x6 | x6 | x6 | x6 | x6 | x6 | x6 | x6 | x6 | %265
 x6 | x6 | x6 | x6 | x6 | x6 | x6 | x6 | x6 | x6 | x6 | x6 | x6 | x6 | x6 | x6 | x6 | x6 | x6 | %284
 x6 | x6 | x6 | x6 | x6 | x6 | x6 | x6 | x6 | x6 | x6 | x6 | x6 | x6 | x6 | x6 | x6 | x6 | x6 | %303
 x6 | x6 | x6 | x6 | x6 | x6 | x6 | x6 | x6 | x6 | x6 | x6 | x6 | x6 | x6 | x6 | x6 | x6 | x6 | %322
 x6 | x6 | x6 | x6 | x6 | x6 | x6 | x6 | x6 | x6 | x6 | x6 | x6 | x6 | x6 | x6 | x6 |] %339

